assets/customers/light/bayesline/bayesline_top.svg

<svg xmlns="http://www.w3.org/2000/svg" width="185" height="32" viewBox="0 0 185 32" fill="none">
  <path fill-rule="evenodd" clip-rule="evenodd" d="M11.833 1.85459C12.9345 0.753031 13.4853 0.202244 14.141 0.0556913C14.4731 -0.0185638 14.8176 -0.0185638 15.1498 0.0556913C15.8055 0.202244 16.3563 0.753031 17.4578 1.85459L19.2703 3.66703L17.4578 5.47946C16.3563 6.58102 15.8055 7.13181 15.1498 7.27836C14.8176 7.35262 14.4731 7.35262 14.141 7.27836C13.4853 7.13181 12.9345 6.58102 11.833 5.47946L10.0205 3.66703L11.833 1.85459ZM5.81234 4.79198C4.89437 5.70995 4.43538 6.16894 3.889 6.29105C3.61218 6.35294 3.32511 6.35294 3.04829 6.29105C2.50191 6.16894 2.04293 5.70995 1.12495 4.79198L0 3.66703L1.12494 2.54207C2.04291 1.6241 2.50189 1.16511 3.04827 1.04298C3.32511 0.981115 3.61218 0.981115 3.889 1.04298C4.43538 1.16511 4.89437 1.6241 5.81234 2.54207L6.93729 3.66703L5.81234 4.79198ZM1.74473 15.0261C2.57091 14.1999 2.984 13.7868 3.47572 13.6769C3.72487 13.6212 3.98323 13.6212 4.23238 13.6769C4.72411 13.7868 5.13719 14.1999 5.96337 15.0261L6.93729 16L5.96339 16.9739C5.13721 17.8001 4.72413 18.2133 4.23238 18.3231C3.98325 18.3788 3.72487 18.3788 3.47572 18.3231C2.984 18.2133 2.57091 17.8001 1.74473 16.9739L0.77081 16L1.74473 15.0261ZM3.889 30.9571C4.43538 30.8349 4.89437 30.3759 5.81234 29.4579L6.93729 28.3329L5.81234 27.208C4.89437 26.2902 4.43538 25.8311 3.889 25.709C3.61218 25.6471 3.32511 25.6471 3.04827 25.709C2.50189 25.8311 2.04291 26.2902 1.12494 27.208L0 28.3329L1.12495 29.4579C2.04293 30.3759 2.50191 30.8349 3.04829 30.9571C3.32511 31.019 3.61218 31.019 3.889 30.9571ZM5.66648 11.6459C6.76804 12.7475 7.31883 13.2983 7.97448 13.4449C8.30667 13.5191 8.65117 13.5191 8.98335 13.4449C9.63901 13.2983 10.1898 12.7475 11.2914 11.6459L13.1038 9.8335L11.2914 8.02109C10.1898 6.91953 9.63901 6.36872 8.98335 6.22217C8.65117 6.14793 8.30667 6.14793 7.97448 6.22217C7.31883 6.36872 6.76804 6.91951 5.66648 8.02109L3.85404 9.8335L5.66648 11.6459ZM7.97448 25.7779C7.31883 25.6313 6.76804 25.0805 5.66648 23.979L3.85404 22.1666L5.66648 20.354C6.76804 19.2525 7.31883 18.7017 7.97448 18.5552C8.30667 18.4809 8.65117 18.4809 8.98335 18.5552C9.63899 18.7017 10.1898 19.2525 11.2913 20.354L13.1038 22.1666L11.2914 23.979C10.1898 25.0805 9.63901 25.6313 8.98335 25.7779C8.65117 25.852 8.30667 25.852 7.97448 25.7779ZM11.833 14.1875L10.0205 16L11.833 17.8124C12.9345 18.9141 13.4853 19.4648 14.141 19.6114C14.4731 19.6857 14.8176 19.6857 15.1498 19.6114C15.8055 19.4648 16.3563 18.9141 17.4578 17.8124L19.2703 16L17.4578 14.1876C16.3563 13.086 15.8055 12.5352 15.1498 12.3886C14.8176 12.3144 14.4731 12.3144 14.141 12.3886C13.4853 12.5352 12.9345 13.086 11.833 14.1875ZM11.833 26.5205C12.9345 25.419 13.4853 24.8682 14.141 24.7218C14.4731 24.6475 14.8176 24.6475 15.1498 24.7218C15.8055 24.8682 16.3563 25.419 17.4578 26.5205L19.2703 28.3329L17.4578 30.1455C16.3563 31.247 15.8055 31.7978 15.1498 31.9443C14.8176 32.0186 14.4731 32.0186 14.141 31.9443C13.4853 31.7978 12.9345 31.247 11.833 30.1455L10.0205 28.3329L11.833 26.5205ZM18.6869 19.6666L16.187 22.1666L18.6869 24.6664C19.972 25.9516 20.6147 26.5943 21.3796 26.7651C21.7671 26.8518 22.1691 26.8518 22.5566 26.7651C23.3215 26.5943 23.9641 25.9516 25.2493 24.6664L27.7491 22.1666L25.2493 19.6666C23.9641 18.3814 23.3215 17.7388 22.5566 17.5678C22.1691 17.4812 21.7671 17.4812 21.3796 17.5678C20.6147 17.7388 19.972 18.3814 18.6869 19.6666ZM18.6869 7.3336C19.972 6.04846 20.6147 5.40585 21.3796 5.23488C21.7671 5.14824 22.1691 5.14824 22.5566 5.23488C23.3215 5.40585 23.9641 6.04844 25.2493 7.3336L27.7491 9.83352L25.2493 12.3334C23.9641 13.6186 23.3215 14.2612 22.5566 14.4321C22.1691 14.5188 21.7671 14.5188 21.3796 14.4321C20.6147 14.2612 19.972 13.6186 18.6869 12.3334L16.187 9.8335L18.6869 7.3336ZM107.751 19.9543C107.897 24.0842 110.241 26.5448 114.927 26.5448C119.028 26.5448 121.986 24.4943 121.986 20.5401C121.986 17.7281 120.375 15.8535 117.592 14.8283L114.224 13.5981C112.262 12.8659 111.734 12.2508 111.734 10.8741C111.734 9.32168 112.906 8.38437 114.839 8.38437C116.743 8.38437 118.12 9.46813 118.325 11.6063H121.693C121.547 8.38437 119.057 5.45528 114.956 5.45528C111.031 5.45528 108.366 7.44706 108.366 11.2256C108.366 13.8617 109.86 15.5899 112.437 16.5272L116.128 17.8746C117.885 18.519 118.618 19.2807 118.618 20.6865C118.618 22.4441 117.299 23.6157 115.073 23.6157C112.554 23.6157 111.266 22.3268 111.119 19.9543H107.751ZM53.5564 20.2472C53.5564 24.2015 51.2131 26.2517 47.1124 26.2517H40.0826V5.74821H46.8195C50.3343 5.74821 52.6776 7.35918 52.6776 11.3134C52.6776 13.5103 51.418 14.7698 49.7779 15.4142C52.004 15.9707 53.5564 17.3473 53.5564 20.2472ZM46.2336 8.82373H43.451V14.389H46.2336C47.9912 14.389 49.3093 13.8032 49.3093 11.6063C49.3093 9.40954 47.9912 8.82373 46.2336 8.82373ZM47.1124 17.0252H43.451V23.1762H47.1124C49.4557 23.1762 50.1878 21.8581 50.1878 20.1008C50.1878 18.3434 49.4557 17.0252 47.1124 17.0252ZM72.2541 26.2517H68.7393L67.4797 21.4188H60.8014L59.542 26.2517H56.1443L62.0024 5.74821H66.396L72.2541 26.2517ZM66.6888 18.3434L64.1406 8.41366L61.5923 18.3434H66.6888ZM78.9226 26.2517H82.2911V18.3434L88.735 5.74821H85.2202L80.6214 15.3849L75.9935 5.74821H72.4788L78.9226 18.3434V26.2517ZM104.366 26.2517H92.6492V5.74821H104.073V8.82373H96.0178V13.8032H103.78V16.8787H96.0178V23.1762H104.366V26.2517ZM137.775 26.2517H126.645V5.74821H130.013V23.1762H137.775V26.2517ZM142.441 26.2517H145.81V5.74821H142.441V26.2517ZM166.733 26.2517H162.047L155.31 9.81961V26.2517H152.088V5.74821H156.774L163.511 22.1804V5.74821H166.733V26.2517ZM173.004 26.2517H184.721V23.1762H176.373V16.8787H184.135V13.8032H176.373V8.82373H184.428V5.74821H173.004V26.2517Z" fill="url(#paint0_linear_10953_13539)"/>
  <defs>
    <linearGradient id="paint0_linear_10953_13539" x1="104.803" y1="7.15825e-07" x2="187.429" y2="11.0149" gradientUnits="userSpaceOnUse">
      <stop stop-color="#1C2024"/>
      <stop offset="1" stop-color="#60646C"/>
    </linearGradient>
  </defs>
</svg>

<svg xmlns="http://www.w3.org/2000/svg" width="185" height="32" fill="none" viewBox="0 0 185 32"><path fill="url(#a)" fill-rule="evenodd" d="M11.833 1.855C12.934.753 13.485.202 14.141.055a2.3 2.3 0 0 1 1.009 0c.656.147 1.206.698 2.308 1.8l1.812 1.812-1.812 1.812c-1.102 1.102-1.652 1.653-2.308 1.8a2.3 2.3 0 0 1-1.009 0c-.656-.147-1.207-.698-2.308-1.8l-1.812-1.812zm-6.02 2.937c-.919.918-1.378 1.377-1.924 1.5a1.9 1.9 0 0 1-.84 0c-.547-.123-1.006-.582-1.924-1.5L0 3.667l1.125-1.125c.918-.918 1.377-1.377 1.923-1.499.277-.062.564-.062.841 0 .546.122 1.005.581 1.923 1.5l1.125 1.124zM1.744 15.026c.826-.826 1.239-1.24 1.73-1.35.25-.055.508-.055.757 0 .492.11.905.524 1.731 1.35l.974.974-.974.974c-.826.826-1.239 1.24-1.73 1.35-.25.055-.508.055-.757 0-.492-.11-.905-.524-1.731-1.35L.77 16zm2.144 15.931c.546-.122 1.005-.581 1.923-1.5l1.125-1.124-1.125-1.125c-.918-.918-1.377-1.377-1.923-1.499a1.9 1.9 0 0 0-.84 0c-.547.122-1.006.581-1.924 1.499L0 28.333l1.125 1.125c.918.918 1.377 1.377 1.923 1.5.277.061.564.061.841 0m1.777-19.311c1.102 1.101 1.653 1.652 2.308 1.799.333.074.677.074 1.01 0 .655-.147 1.206-.697 2.307-1.8l1.813-1.811L11.29 8.02c-1.1-1.1-1.65-1.65-2.307-1.798a2.3 2.3 0 0 0-1.009 0c-.655.147-1.206.698-2.308 1.8L3.854 9.833zm2.308 14.132c-.655-.147-1.206-.697-2.308-1.799l-1.812-1.812 1.812-1.813c1.102-1.101 1.653-1.652 2.308-1.799a2.3 2.3 0 0 1 1.01 0c.655.147 1.206.698 2.307 1.799l1.813 1.813-1.813 1.812c-1.101 1.102-1.652 1.652-2.308 1.799a2.3 2.3 0 0 1-1.009 0m3.859-11.59L10.021 16l1.812 1.812c1.101 1.102 1.652 1.653 2.308 1.8a2.3 2.3 0 0 0 1.009 0c.656-.147 1.206-.698 2.308-1.8L19.27 16l-1.812-1.812c-1.102-1.102-1.652-1.653-2.308-1.8a2.3 2.3 0 0 0-1.009 0c-.656.147-1.207.698-2.308 1.8m0 12.332c1.101-1.101 1.652-1.652 2.308-1.798a2.3 2.3 0 0 1 1.009 0c.656.146 1.206.697 2.308 1.798l1.812 1.813-1.812 1.813c-1.102 1.101-1.652 1.652-2.308 1.798a2.3 2.3 0 0 1-1.009 0c-.656-.146-1.207-.697-2.308-1.799l-1.812-1.812zm6.854-6.853-2.5 2.5 2.5 2.5c1.285 1.285 1.928 1.927 2.693 2.098.387.087.79.087 1.177 0 .765-.17 1.407-.813 2.692-2.099l2.5-2.5-2.5-2.5c-1.285-1.285-1.927-1.927-2.692-2.098a2.7 2.7 0 0 0-1.177 0c-.765.17-1.408.813-2.693 2.099m0-12.333c1.285-1.286 1.928-1.928 2.693-2.1.387-.086.79-.086 1.177 0 .765.172 1.407.814 2.692 2.1l2.5 2.5-2.5 2.5c-1.285 1.285-1.927 1.927-2.692 2.098-.388.087-.79.087-1.177 0-.765-.17-1.408-.813-2.693-2.099l-2.5-2.5zm89.064 12.62c.146 4.13 2.49 6.59 7.176 6.59 4.101 0 7.059-2.05 7.059-6.004 0-2.812-1.611-4.686-4.394-5.712l-3.368-1.23c-1.962-.732-2.49-1.347-2.49-2.724 0-1.552 1.172-2.49 3.105-2.49 1.904 0 3.281 1.084 3.486 3.222h3.368c-.146-3.222-2.636-6.15-6.737-6.15-3.925 0-6.59 1.991-6.59 5.77 0 2.636 1.494 4.364 4.071 5.301l3.691 1.348c1.757.644 2.49 1.406 2.49 2.811 0 1.758-1.319 2.93-3.545 2.93-2.519 0-3.807-1.29-3.954-3.662zm-54.195.293c0 3.954-2.343 6.005-6.444 6.005h-7.03V5.748h6.737c3.515 0 5.859 1.611 5.859 5.565 0 2.197-1.26 3.457-2.9 4.101 2.226.557 3.778 1.933 3.778 4.833M46.234 8.824H43.45v5.565h2.783c1.757 0 3.075-.586 3.075-2.783s-1.318-2.782-3.075-2.782m.878 8.201H43.45v6.151h3.661c2.344 0 3.076-1.318 3.076-3.075s-.732-3.076-3.076-3.076m25.142 9.227H68.74l-1.26-4.833h-6.678l-1.259 4.833h-3.398l5.858-20.504h4.394zm-5.565-7.909-2.548-9.93-2.549 9.93zm12.234 7.909h3.368v-7.909l6.444-12.595H85.22l-4.599 9.637-4.627-9.637h-3.515l6.444 12.595zm25.443 0H92.649V5.748h11.424v3.076h-8.055v4.98h7.762v3.075h-7.762v6.297h8.348zm33.409 0h-11.13V5.748h3.368v17.428h7.762zm4.666 0h3.369V5.748h-3.369zm24.292 0h-4.686L155.31 9.82v16.432h-3.222V5.748h4.686l6.737 16.432V5.748h3.222zm6.271 0h11.717v-3.076h-8.348V16.88h7.762v-3.076h-7.762v-4.98h8.055V5.749h-11.424z" clip-rule="evenodd"/><defs><linearGradient id="a" x1="104.803" x2="187.429" y1="0" y2="11.015" gradientUnits="userSpaceOnUse"><stop stop-color="#1C2024"/><stop offset="1" stop-color="#60646C"/></linearGradient></defs></svg>
